X:1
T:Title
%%score ( 1 2 ) ( 3 4 )
L:1/8
Q:1/4=75
M:6/8
K:A
V:1 treble nm="Strings 1, Soprano"
V:2 treble 
V:3 bass nm="Strings 1, Bass"
V:4 bass 
V:1
 z3 z2 [CE] | [CE]2 [CE] [DF]2 [CE] | [Ec]2 [EB] [EA]2 [CA] | [EB]2 [Ed] [Ec]2 [EB] | A3 E2 [CE] | %5
w: 1.~Not~|in~ the~ tem ples~|made~ with~ hands,~ Though~|beau ti ful~ by~|art,~ * But~|
 [CE]2 [CE] [DF]2 [CE] | [Ec]2 [EB] [EA]2 [CA] | [EB]2 [Ed] [Ec]2 [DB] | [CA]6 | %9
w: God~ in~ mer cy~|con des cends~ To~|dwell~ with in~ my~|heart.~|
 [Ec]3 [Ec][DB][CA] | [CE]3 [CA]3 | [DG]3 GF[DG] | A3 E3 | [Ec]3 [Ec][EB][EA] | [FA]3 [DF]3 | %15
w: ||||||
 [CE]2 [EA] GA[EB] | [EA]6 |] %17
w: ||
V:2
 x6 | x6 | x6 | x6 | C6 | x6 | x6 | x6 | x6 | x6 | x6 | z3 .D3 | C6 | x6 | x6 | z3 .E3 | x6 |] %17
V:3
 z3 z2 [A,,A,] | [A,,A,]2 [A,,A,] [A,,A,]2 [A,,A,] | [A,,A,]2 [B,,G,] [C,A,]2 [F,A,] | %3
 [E,G,]2 [E,B,] [E,A,]2 [E,G,] | [A,,A,]3- [A,,A,]2 [A,,A,] | [A,,A,]2 [A,,A,] [A,,A,]2 [A,,A,] | %6
 [A,,A,]2 [B,,G,] [C,A,]2 [F,A,] | [E,G,]2 [E,B,] [E,A,]2 [E,G,] | [A,,A,]6 | %9
 [A,,A,]3 [A,,A,][A,,E,][A,,E,] | [A,,A,]3 [A,,A,]3 | [E,B,]3 B,A,[E,B,] | [A,,A,]6 | %13
 [A,,A,]3 [A,,A,][B,,G,][C,A,] | [D,A,]3 [D,A,]3 | [E,A,]2 [E,C] B,C[E,D] | [A,,C]6 |] %17
V:4
 x6 | x6 | x6 | x6 | x6 | x6 | x6 | x6 | x6 | x6 | x6 | z3 .E,3 | x6 | x6 | x6 | z3 .E,3 | x6 |] %17

